X:1
T:Title
%%score { 1 | 2 }
L:1/8
M:6/8
K:Ab
V:1 treble nm="Grand Piano"
V:2 bass 
V:1
 z3 z2[Q:1/4=100] [CE] | [CA]2 [CA] [Ec]2 [CE] | [DF]2 [DF] [FA]2 [DF] | [CE]2 [CE] [CA]2 [Ec] | %4
[M:5/8] [EB]-[EB]- [EB]3 |[M:1/8] [DE] |[M:3/4] [CA]2 [CA] [Ec]2 [CE] | [DF]2 [DF] [FA]2 F | %8
 E2 A c2 B |[M:5/8] [CA]-[CA]- [CA]3 |[M:1/8] E |[M:3/4] d2 d d2 E | c2 c c2 c | e2 c A2 c | %14
[M:5/8] B-B- B3 |[M:1/8] E |[M:3/4] [Ec]2 [EB] [EA]2 E |[M:7/8] F2 F [FA]3 [=EB] | %18
[M:3/4] c2 c c2 B |[M:5/8] [CA]-[CA]- [CA]3 |] %20
V:2
 z3 z2 [A,,A,] | [A,,A,]2 [A,,A,] [A,,A,]2 [A,,A,] | [D,A,]2 [D,A,] [D,D]2 [D,A,] | %3
 [A,,A,]2 [A,,A,] [A,,A,]2 [A,,A,] |[M:5/8] [E,G,]-[E,G,]- [E,G,]3 |[M:1/8] [E,G,] | %6
[M:3/4] [A,,A,]2 [A,,A,] [A,,A,]2 [A,,A,] | [D,A,]2 [D,A,] [D,D]2 [D,A,D] | %8
 [E,A,C]2 [E,A,C] [E,A,E]2 [E,G,D] |[M:5/8] [A,,A,]-[A,,A,]- [A,,A,]3 |[M:1/8] [E,G,] | %11
[M:3/4] [E,G,E]2 [E,G,E] [E,G,E]2 [E,G,] | [A,E]2 [A,E] [A,E]2 [A,E] | %13
 [A,CA]2[K:bass] [A,E] [A,CE]2 [A,E] |[M:5/8] [E,G,E]-[E,G,E]- [E,G,E]3 |[M:1/8] [E,G,] | %16
[M:3/4] [A,,A,]2 [B,,G,] [C,A,]2 [C,A,] |[M:7/8] [E,A,D]2 [D,A,D] [D,D]3 [D,A,] | %18
[M:3/4] [E,A,E]2 [E,A,E] [E,A,E]2 [E,G,D] |[M:5/8] [A,,A,]-[A,,A,]- [A,,A,]3 |] %20

